X: 12
T: Roaring Barmaid, The
C: Tony Sullivan
Z: Paddy Squeezebox
S: https://thesession.org/tunes/91#setting46718
R: jig
M: 6/8
L: 1/8
K: Gmaj
|:GFG EGD|GFG EGD|DEE BGG|dGG BdB|
GFG EGD|GFG EGD|GAB deg|deg edB:|
deg b3|bab deg|b2b bag|edB deg|
b2b bab|agg bgg|agg deg|deg edB:|

